X: 34
T: Lass of Leving-Stone
%R: _
B: "A Collection of Original Scotch-Tunes", Henry Playford, 1700, ed. p.14 #34 (and top staff of p.15)
F: http://imslp.org/wiki/A_Collection_of_Original_Scotch_Tunes_(Various)
Z: 2015 John Chambers <jc:trillian.mit.edu>
M: none
L: 1/8
K: F
% - - - - - - - - - - - - - - - - - - - - - - - - - - - - -
cB |\
A2F2 F2c2 | f4 a4 | g3f d2c2 | f6 dc |\
A2 F2 FG AF | B2 G GA BG | c3 A F3 A | c4 c2 ||\
de |\
fefg af gd |
fedc dcBA | GA BG AB cA | dcBA GA BG |\
AG AF BA AG | cBcA dcdB | cdec efge | f2 F2 F2 |]
% - - - - - - - - - - - - - - - - - - - - - - - - - - - - -

%%sep 1 1 500
%%sep 1 1 500

